resources/haticons/SVG/auto_awesome_motion.svg

<!-- Generated by IcoMoon.io -->
<svg version="1.1" xmlns="http://www.w3.org/2000/svg" width="24" height="24" viewBox="0 0 24 24">
<title>auto_awesome_motion</title>
<path d="M14.016 2.016h-10.031q-0.797 0-1.383 0.586t-0.586 1.383v10.031h1.969v-10.031h10.031v-1.969zM18 6h-9.984q-0.844 0-1.43 0.586t-0.586 1.43v9.984h2.016v-9.984h9.984v-2.016zM20.016 9.984h-8.016q-0.844 0-1.43 0.586t-0.586 1.43v8.016q0 0.797 0.586 1.383t1.43 0.586h8.016q0.797 0 1.383-0.586t0.586-1.383v-8.016q0-0.844-0.586-1.43t-1.383-0.586z"></path>
</svg>

<svg xmlns="http://www.w3.org/2000/svg" width="24" height="24"><path d="M14.016 2.016H3.985q-.797 0-1.383.586t-.586 1.383v10.031h1.969V3.985h10.031V2.016zM18 6H8.016q-.844 0-1.43.586T6 8.016V18h2.016V8.016H18V6zm2.016 3.984H12q-.844 0-1.43.586T9.984 12v8.016q0 .797.586 1.383t1.43.586h8.016q.797 0 1.383-.586t.586-1.383V12q0-.844-.586-1.43t-1.383-.586z"/></svg>
